static/img/chain.svg

<?xml version="1.0" encoding="UTF-8"?> <svg xmlns="http://www.w3.org/2000/svg" width="161" height="42" viewBox="0 0 161 42" fill="none"><path fill-rule="evenodd" clip-rule="evenodd" d="M9.12072 0L9.43882 4.05312e-06L20.112 0.000191927L20.43 0.00019753L20.6819 0.194454L23.0295 2.00503L25.342 0.221469L25.5939 0.0272011L25.912 0.0272067L36.5852 0.0273946L36.9032 0.0274002L37.1551 0.221657L45.6606 6.78152L46.0239 7.06173V7.52055V19.235V19.5508L45.8321 19.8018L43.3182 23.0901L45.8321 26.3785L46.0239 26.6294V26.9453V33.7477V34.2065L45.6606 34.4867L37.1551 41.0466L36.9032 41.2409L36.5851 41.2409L25.912 41.2407L25.5939 41.2407L25.342 41.0464L22.9945 39.2358L20.6819 41.0194L20.43 41.2137L20.1119 41.2137L9.43879 41.2135L9.12071 41.2135L8.86884 41.0192L0.363315 34.4593L0 34.1791V33.7203V26.9179V26.602L0.191843 26.3511L2.70573 23.0627L0.191843 19.7744L0 19.5234V19.2076V7.49316V7.03434L0.363315 6.75414L8.86884 0.194266L9.12072 0ZM21.5013 3.18364L19.7938 1.86676L9.75689 1.86658L2.46147 7.49316L9.7569 13.1198L19.7939 13.1199L21.4663 11.8301L21.4636 11.828L22.9938 10.6509L22.9945 10.6515L23.5336 10.2356L23.9786 9.89335L23.9782 9.89279L27.0893 7.49334L24.871 5.78252L26.4012 4.60545L29.1874 6.75432L30.1456 7.49334L29.1874 8.23237L24.5226 11.8301L26.2301 13.147L36.2671 13.1471L43.5625 7.52055L36.267 1.89396L26.2301 1.89378L24.5577 3.18364L24.5585 3.18425L22.097 5.07772L22.0988 5.08006L18.9347 7.52036L21.151 9.22972L19.6208 10.4068L16.8365 8.25938L15.8783 7.52036L16.8365 6.78134L21.5013 3.18364ZM22.9945 13.0087L21.0452 14.512V38.382L22.4245 37.3182L22.9945 36.8786L23.5644 37.3182L24.9787 38.409V14.539L22.9945 13.0087ZM26.8453 15.0135V39.3741L35.6519 39.3743V27.6852V15.0137L26.8453 15.0135ZM37.5184 14.5392V27.6852V38.4092L44.1574 33.2889V27.2612L41.402 23.657L40.9687 23.0901L41.402 22.5233L44.1574 18.9191V9.41895L37.5184 14.5392ZM19.1786 39.3471V14.9865L10.3721 14.9863V27.6578V39.3469L19.1786 39.3471ZM8.50552 38.3818V27.6578V14.5118L1.86657 9.39156V18.8917L4.62194 22.4959L5.05526 23.0627L4.62194 23.6296L1.86657 27.2338V33.2615L8.50552 38.3818Z" fill="#0CC2FF"></path><path d="M65.9091 3.74072L67.7406 5.57221V8.63241H65.5382V6.47636L65.005 5.94314H58.8846L58.3513 6.47636V15.657L58.8846 16.1902H65.005L65.5382 15.657V13.5009H67.7406V16.5611L65.9091 18.3926H57.9804L56.1489 16.5611V5.57221L57.9804 3.74072H65.9091Z" fill="white"></path><path d="M81.4329 3.74072L83.2644 5.57221V11.6694L81.4329 13.5009H78.3727L83.2644 18.3926H80.1578L75.2662 13.5009H73.8751V18.3926H71.6727V3.74072H81.4329ZM81.062 10.7653V6.47636L80.5288 5.94314H73.8751V11.2985H80.5288L81.062 10.7653Z" fill="white"></path><path d="M96.9567 3.74072L98.7882 5.57221V16.5611L96.9567 18.3926H89.028L87.1965 16.5611V5.57221L89.028 3.74072H96.9567ZM96.5858 15.657V6.47636L96.0526 5.94314H89.9322L89.399 6.47636V15.657L89.9322 16.1902H96.0526L96.5858 15.657Z" fill="white"></path><path d="M112.481 3.74072L114.312 5.57221V8.00646H112.11V6.47636L111.576 5.94314H105.456L104.923 6.47636V9.11927L105.456 9.65248H112.481L114.312 11.484V16.5611L112.481 18.3926H104.552L102.72 16.5611V14.1269H104.923V15.657L105.456 16.1902H111.576L112.11 15.657V12.3881L111.576 11.8549H104.552L102.72 10.0234V5.57221L104.552 3.74072H112.481Z" fill="white"></path><path d="M128.004 3.74072L129.836 5.57221V8.00646H127.633V6.47636L127.1 5.94314H120.98L120.447 6.47636V9.11927L120.98 9.65248H128.004L129.836 11.484V16.5611L128.004 18.3926H120.076L118.244 16.5611V14.1269H120.447V15.657L120.98 16.1902H127.1L127.633 15.657V12.3881L127.1 11.8549H120.076L118.244 10.0234V5.57221L120.076 3.74072H128.004Z" fill="white"></path><path d="M136.504 5.94314L135.97 6.47636V9.46702H142.925V11.6694H135.97V18.3926H133.768V5.57221L135.599 3.74072H145.36V5.94314H136.504Z" fill="white"></path><path d="M156.2 5.94314V16.1902H160.883V18.3926H149.292V16.1902H153.998V5.94314H149.292V3.74072H160.883V5.94314H156.2Z" fill="white"></path><path d="M65.9088 22.5891L67.7402 24.4205V27.4806H65.5379V25.3247L65.0047 24.7915H58.8845L58.3513 25.3247V34.5049L58.8845 35.0381H65.0047L65.5379 34.5049V32.349H67.7402V35.4091L65.9088 37.2405H57.9803L56.1489 35.4091V24.4205L57.9803 22.5891H65.9088Z" fill="#0CC2FF"></path><path d="M81.0611 22.5891H83.2634V37.2405H81.0611V31.3289H73.8281V37.2405H71.6722V22.5891H73.8281V29.1266H81.0611V22.5891Z" fill="#0CC2FF"></path><path d="M96.9553 22.5891L98.7867 24.4205V37.2405H96.5843V32.9749H89.3978V37.2405H87.1954V24.4205L89.0268 22.5891H96.9553ZM89.3978 30.7725H96.5843V25.3247L96.0511 24.7915H89.9309L89.3978 25.3247V30.7725Z" fill="#0CC2FF"></path><path d="M109.627 24.7915V35.0381H114.31V37.2405H102.719V35.0381H107.425V24.7915H102.719V22.5891H114.31V24.7915H109.627Z" fill="#0CC2FF"></path><path d="M127.631 22.5891H129.833V37.2405H127.631L120.444 26.5301V37.2405H118.242V22.5891H120.444L127.631 33.2531V22.5891Z" fill="#0CC2FF"></path><path fill-rule="evenodd" clip-rule="evenodd" d="M58.1323 22.3298H66.2757L68.2591 24.3132V27.7402H65.5379V25.4323L65.1566 25.051H59.2514L58.8701 25.4323V34.3976L59.2514 34.7789H65.1566L65.5379 34.3976V32.0897H68.2591V35.5167L66.2757 37.5001H58.1323L56.1489 35.5167V24.3132L58.1323 22.3298ZM58.3472 22.8487L56.6678 24.5282V35.3017L58.3472 36.9812H66.0607L67.7402 35.3017V32.6086H66.0567V34.6126L65.3716 35.2977H59.0364L58.3513 34.6126V25.2173L59.0364 24.5322H65.3716L66.0567 25.2173V27.2213H67.7402V24.5282L66.0607 22.8487H58.3472ZM71.6722 22.3298H74.347V28.8673H81.0611V22.3298H83.7823V37.5001H81.0611V31.5885H74.347V37.5001H71.6722V22.3298ZM72.191 22.8487V36.9812H73.8281V31.0696H81.58V36.9812H83.2634V22.8487H81.58V29.3862H73.8281V22.8487H72.191ZM89.1788 22.3298H97.3222L99.3056 24.3132V37.5001H96.5843V33.2345H89.9166V37.5001H87.1954V24.3132L89.1788 22.3298ZM89.3937 22.8487L87.7143 24.5282V36.9812H89.3978V32.7156H97.1032V36.9812H98.7867V24.5282L97.1072 22.8487H89.3937ZM102.719 22.3298H114.829V25.051H110.146V34.7789H114.829V37.5001H102.719V34.7789H107.425V25.051H102.719V22.3298ZM103.238 22.8487V24.5322H107.944V35.2977H103.238V36.9812H114.31V35.2977H109.627V24.5322H114.31V22.8487H103.238ZM118.242 22.3298H120.842L127.631 32.404V22.3298H130.352V37.5001H127.752L120.963 27.3826V37.5001H118.242V22.3298ZM118.761 22.8487V36.9812H120.444V25.678L128.029 36.9812H129.833V22.8487H128.15V34.1024L120.566 22.8487H118.761ZM90.0829 24.5322H96.418L97.1032 25.2173V31.0321H89.3978V25.2173L90.0829 24.5322ZM90.2978 25.051L89.9166 25.4323V30.5133H96.5843V25.4323L96.2031 25.051H90.2978Z" fill="#0CC2FF"></path></svg>

<?xml version="1.0" encoding="utf-8"?>
<!-- Generator: Adobe Illustrator 28.3.0, SVG Export Plug-In . SVG Version: 6.00 Build 0)  -->
<svg version="1.1" id="katman_1" xmlns="http://www.w3.org/2000/svg" xmlns:xlink="http://www.w3.org/1999/xlink" x="0px" y="0px"
	 viewBox="0 0 161 42" style="enable-background:new 0 0 161 42;" xml:space="preserve">
<style type="text/css">
	.st0{fill-rule:evenodd;clip-rule:evenodd;fill:#0CC2FF;}
	.st1{fill:#0CC2FF;stroke:#0CC2FF;}
	.st2{fill:#0CC2FF;}
</style>
<path class="st0" d="M9.1,0l0.3,0l10.7,0l0.3,0l0.3,0.2L23,2l2.3-1.8L25.6,0l0.3,0l10.7,0l0.3,0l0.3,0.2l8.5,6.6L46,7.1v0.5v11.7
	v0.3l-0.2,0.3l-2.5,3.3l2.5,3.3l0.2,0.3v0.3v6.8v0.5l-0.4,0.3L37.2,41l-0.3,0.2h-0.3l-10.7,0h-0.3L25.3,41L23,39.2L20.7,41l-0.3,0.2
	h-0.3l-10.7,0H9.1L8.9,41l-8.5-6.6L0,34.2v-0.5v-6.8v-0.3l0.2-0.3l2.5-3.3l-2.5-3.3L0,19.5v-0.3V7.5V7l0.4-0.3l8.5-6.6L9.1,0z
	 M21.5,3.2l-1.7-1.3l-10,0L2.5,7.5l7.3,5.6l10,0l1.7-1.3l0,0l1.5-1.2l0,0l0.5-0.4L24,9.9l0,0l3.1-2.4l-2.2-1.7l1.5-1.2l2.8,2.1
	l1,0.7l-1,0.7l-4.7,3.6l1.7,1.3l10,0l7.3-5.6l-7.3-5.6l-10,0l-1.7,1.3l0,0l-2.5,1.9l0,0l-3.2,2.4l2.2,1.7l-1.5,1.2l-2.8-2.1l-1-0.7
	l1-0.7L21.5,3.2z M23,13L21,14.5v23.9l1.4-1.1l0.6-0.4l0.6,0.4l1.4,1.1V14.5L23,13z M26.8,15v24.4l8.8,0V27.7V15L26.8,15z
	 M37.5,14.5v13.1v10.7l6.6-5.1v-6l-2.8-3.6L41,23.1l0.4-0.6l2.8-3.6V9.4L37.5,14.5z M19.2,39.3V15l-8.8,0v12.7v11.7L19.2,39.3z
	 M8.5,38.4V27.7V14.5L1.9,9.4v9.5l2.8,3.6l0.4,0.6l-0.4,0.6l-2.8,3.6v6L8.5,38.4z"/>
<path class="st1" d="M65.9,3.7l1.8,1.8v3.1h-2.2V6.5L65,5.9h-6.1l-0.5,0.5v9.2l0.5,0.5H65l0.5-0.5v-2.2h2.2v3.1l-1.8,1.8H58
	l-1.8-1.8v-11L58,3.7H65.9z"/>
<path class="st1" d="M81.4,3.7l1.8,1.8v6.1l-1.8,1.8h-3.1l4.9,4.9h-3.1l-4.9-4.9h-1.4v4.9h-2.2V3.7H81.4z M81.1,10.8V6.5l-0.5-0.5
	h-6.7v5.4h6.7L81.1,10.8z"/>
<path class="st1" d="M97,3.7l1.8,1.8v11L97,18.4H89l-1.8-1.8v-11L89,3.7H97z M96.6,15.7V6.5l-0.5-0.5h-6.1l-0.5,0.5v9.2l0.5,0.5h6.1
	L96.6,15.7z"/>
<path class="st1" d="M112.5,3.7l1.8,1.8V8h-2.2V6.5l-0.5-0.5h-6.1l-0.5,0.5v2.6l0.5,0.5h7l1.8,1.8v5.1l-1.8,1.8h-7.9l-1.8-1.8v-2.4
	h2.2v1.5l0.5,0.5h6.1l0.5-0.5v-3.3l-0.5-0.5h-7l-1.8-1.8V5.6l1.8-1.8H112.5z"/>
<path class="st1" d="M128,3.7l1.8,1.8V8h-2.2V6.5l-0.5-0.5H121l-0.5,0.5v2.6l0.5,0.5h7l1.8,1.8v5.1l-1.8,1.8h-7.9l-1.8-1.8v-2.4h2.2
	v1.5l0.5,0.5h6.1l0.5-0.5v-3.3l-0.5-0.5h-7l-1.8-1.8V5.6l1.8-1.8H128z"/>
<path class="st1" d="M136.5,5.9L136,6.5v3h7v2.2h-7v6.7h-2.2V5.6l1.8-1.8h9.8v2.2H136.5z"/>
<path class="st1" d="M156.2,5.9v10.2h4.7v2.2h-11.6v-2.2h4.7V5.9h-4.7V3.7h11.6v2.2H156.2z"/>
<path class="st2" d="M65.9,22.6l1.8,1.8v3.1h-2.2v-2.2L65,24.8h-6.1l-0.5,0.5v9.2l0.5,0.5H65l0.5-0.5v-2.2h2.2v3.1l-1.8,1.8H58
	l-1.8-1.8v-11l1.8-1.8H65.9z"/>
<path class="st2" d="M81.1,22.6h2.2v14.7h-2.2v-5.9h-7.2v5.9h-2.2V22.6h2.2v6.5h7.2V22.6z"/>
<path class="st2" d="M97,22.6l1.8,1.8v12.8h-2.2V33h-7.2v4.3h-2.2V24.4l1.8-1.8H97z M89.4,30.8h7.2v-5.4l-0.5-0.5h-6.1l-0.5,0.5
	V30.8z"/>
<path class="st2" d="M109.6,24.8V35h4.7v2.2h-11.6V35h4.7V24.8h-4.7v-2.2h11.6v2.2H109.6z"/>
<path class="st2" d="M127.6,22.6h2.2v14.7h-2.2l-7.2-10.7v10.7h-2.2V22.6h2.2l7.2,10.7V22.6z"/>
<path class="st0" d="M58.1,22.3h8.1l2,2v3.4h-2.7v-2.3l-0.4-0.4h-5.9l-0.4,0.4v9l0.4,0.4h5.9l0.4-0.4v-2.3h2.7v3.4l-2,2h-8.1l-2-2
	V24.3L58.1,22.3z M58.3,22.8l-1.7,1.7v10.8l1.7,1.7h7.7l1.7-1.7v-2.7h-1.7v2l-0.7,0.7H59l-0.7-0.7v-9.4l0.7-0.7h6.3l0.7,0.7v2h1.7
	v-2.7l-1.7-1.7H58.3z M71.7,22.3h2.7v6.5h6.7v-6.5h2.7v15.2h-2.7v-5.9h-6.7v5.9h-2.7V22.3z M72.2,22.8V37h1.6v-5.9h7.8V37h1.7V22.8
	h-1.7v6.5h-7.8v-6.5H72.2z M89.2,22.3h8.1l2,2v13.2h-2.7v-4.3h-6.7v4.3h-2.7V24.3L89.2,22.3z M89.4,22.8l-1.7,1.7V37h1.7v-4.3h7.7
	V37h1.7V24.5l-1.7-1.7H89.4z M102.7,22.3h12.1v2.7h-4.7v9.7h4.7v2.7h-12.1v-2.7h4.7v-9.7h-4.7V22.3z M103.2,22.8v1.7h4.7v10.8h-4.7
	V37h11.1v-1.7h-4.7V24.5h4.7v-1.7H103.2z M118.2,22.3h2.6l6.8,10.1V22.3h2.7v15.2h-2.6L121,27.4v10.1h-2.7V22.3z M118.8,22.8V37h1.7
	V25.7L128,37h1.8V22.8h-1.7v11.3l-7.6-11.3H118.8z M90.1,24.5h6.3l0.7,0.7V31h-7.7v-5.8L90.1,24.5z M90.3,25.1l-0.4,0.4v5.1h6.7
	v-5.1l-0.4-0.4H90.3z"/>
</svg>
